!!!ONB: MCCC : IFS0589_01 : Extracted Monophonic Melody
!!!COM: Schubert, Franz
!!!OPR: Piano Sonata in A minor
!!!OMV: 1
!!!SCT: D.845 (published as Op.42)
!!!ODT: 1825///
**kern
*staff1
*clefG2
*k[]
*C:
*M4/4
8.cc[
32cc]
32cc
=1
4b
4a
4.ee
16cc
16a
=2
2.e
4e
=3
4e
4e
4e
4a
=4
2.g#
8.dd[
32dd]
32dd
=5
4cc
4b
4.ff
16dd
16b
=6
2.e
4g#
=7
4a
4b
4cc
4ee
=8
1aa[
=9
8aa]
16bb
16aa
8gg#
8aa
4ccc
4bb
=10
4gg#
4e
2e
=11
2.e
4e
=12
8f
8A
8c
8e
8f
8A
8c
8e
=13
8f
8B
8d
8f
4.b
8b
=14
4g#
4ee
2ee
=15
2.ee
4ee
=16
8ff
8a
8cc
8ee
8ff
8a
8cc
8ee
=17
8ff
8b
8dd
8ff
4.bb
8bb
=18
4gg#
4eee
2eee
=19
2.eee
4eee
=20
4aaa
2aa
4aa
=21
4bb-
2aaa
4aaa
=22
4bbb-
2aa
4aa
=23
4bb-
2aaa
4aaa
=24
4aaa
4r
4eee
4r
=25
4eee
4r
4eee
4r
=26
8a
8A
8A
8A
4A
4r
=27
1r
=28
8a
8A
8A
8A
4A
4r
=29
1r
=30
8cc
8c
8c
8c
4c
4d
=31
4e
4d
4e
4d
=32
8cc
8c
8c
8c
4c
4d
=33
4e
4d
4e
4f#
=34
8g
8G
8g
8g
4g
4g#
=35
8g
8G
8g
8g
4g
4g#
=36
4f##
4g#
4f##
4g#
=37
4a
4b-
4b
4cc
=38
8cc
8ee
8ee
8ee
4ee
4ff
=39
8aa
8gg
8gg
8gg
4gg
4gg
=40
8gg
8g
8g
8g
8g
8g
8b
8dd
=41
8cc
8g
8b
8dd
8cc
8g
8b
8dd
=42
8cc
8g
8cc
8ee
8gg
8ccc
8eee
8ggg
=43
8ggg
8gg
8ggg#
8gg#
8aaa
8aa
8aaa
8aa
=44
8aa
8a
8a
8a
8a
8a
8cc#
8ee
=45
8dd
8a
8cc#
8ee
8dd
8a
8cc#
8ee
=46
8dd
8a
8dd
8ff
8aa
8ddd
8fff
8aaa
=47
8aaa
8aa
8aaa
8aa
8bbb-
8bb-
8bbb-
8bb-
=48
8bbb
8bb
8bb
8bb
4bb
4bb
=49
8ccc
8ee
8ee
8ee
4ee
4aa
=50
4r
4dd
4r
4gg
=51
8gg
8ee
8g
8ee
4g
4g
=52
4g
4g
4g
4g
=53
2g
4r
4ee
=54
8r
8cc#
8ee
8aa
8ccc#
8eee
4aaa
=55
8aa
8ff
8a
8ff
4a
4a
=56
4a
4a
4a
4a
=57
2a
4r
4ff
=58
8r
8dd
8ff
8bb-
8ddd
8fff
4bbb-
=59
4r
4bb
4r
4ccc
=60
1r
=61
4r
4dd
4r
4gg
=62
1r
=63
2r
4r
8.ee-[
32ee-]
32ee-
=64
4dd
4cc
4.gg
16ee-
16cc
=65
2.g
4g
=66
4g
4g
4g
4ee-
=67
2ee-
4dd
8.ff[
32ff]
32ff
=68
4ee-
4dd
4.gg#
16ff
16dd
=69
2.g
4g
=70
4g#
4b
4cc
4dd
=71
2ff
4ee-
8.e-[
32e-]
32e-
=72
4d
4c
4.g
16e-
16c
=73
1G#[
=74
2G#]
2r
=75
1g
=76
1g
=77
1r
=78
1r
=79
1r
=80
1r
=81
8c
8G
8G
8G
4G
8.c[
32c]
32c
=82
4B
4A
4B
8.c[
32c]
32c
=83
4B
8A
8B
4c
4d
=84
8c
8G
8G
8G
4G
8.c[
32c]
32c
=85
4B
4A
4B
8.c[
32c]
32c
=86
4B
8A
8B
4c
4d
=87
1r
=88
1r
=89
1r
=90
*M3/4
2.r
=91
*M1/4
8.cc[
32cc]
32cc
=92
*M4/4
4b
4a
4.ee
16cc
16a
=93
2.e
4e
=94
4e
4e
4e
4a
=95
2.g#
8.dd[
32dd]
32dd
=96
4cc
4b
4.ff
16dd
16b
=97
2.e
4g#
=98
4a
4b
4cc
4ee
=99
1aa[
=100
8aa]
16bb
16aa
8gg#
8aa
4ccc
4bb
=101
4gg#
4e
2e
=102
2.e
4e
=103
8f
8A
8c
8e
8f
8A
8c
8e
=104
8f
8B
8d
8f
4.b
8b
=105
4g#
4ee
2ee
=106
2.ee
4ee
=107
8ff
8a
8cc
8ee
8ff
8a
8cc
8ee
=108
8ff
8b
8dd
8ff
4.bb
8bb
=109
4gg#
4eee
2eee
=110
2.eee
4eee
=111
4aaa
2aa
4aa
=112
4bb-
2aaa
4aaa
=113
4bbb-
2aa
4aa
=114
4bb-
2aaa
4aaa
=115
4aaa
4r
4eee
4r
=116
4eee
4r
4eee
4r
=117
8a
8A
8A
8A
4A
4r
=118
1r
=119
8a
8A
8A
8A
4A
4r
=120
1r
=121
8cc
8c
8c
8c
4c
4d
=122
4e
4d
4e
4d
=123
8cc
8c
8c
8c
4c
4d
=124
4e
4d
4e
4f#
=125
8g
8G
8g
8g
4g
4g#
=126
8g
8G
8g
8g
4g
4g#
=127
4f##
4g#
4f##
4g#
=128
4a
4b-
4b
4cc
=129
8cc
8ee
8ee
8ee
4ee
4ff
=130
8aa
8gg
8gg
8gg
4gg
4gg
=131
8gg
8g
8g
8g
8g
8g
8b
8dd
=132
8cc
8g
8b
8dd
8cc
8g
8b
8dd
=133
8cc
8g
8cc
8ee
8gg
8ccc
8eee
8ggg
=134
8ggg
8gg
8ggg#
8gg#
8aaa
8aa
8aaa
8aa
=135
8aa
8a
8a
8a
8a
8a
8cc#
8ee
=136
8dd
8a
8cc#
8ee
8dd
8a
8cc#
8ee
=137
8dd
8a
8dd
8ff
8aa
8ddd
8fff
8aaa
=138
8aaa
8aa
8aaa
8aa
8bbb-
8bb-
8bbb-
8bb-
=139
8bbb
8bb
8bb
8bb
4bb
4bb
=140
8ccc
8ee
8ee
8ee
4ee
4aa
=141
4r
4dd
4r
4gg
=142
8gg
8ee
8g
8ee
4g
4g
=143
4g
4g
4g
4g
=144
2g
4r
4ee
=145
8r
8cc#
8ee
8aa
8ccc#
8eee
4aaa
=146
8aa
8ff
8a
8ff
4a
4a
=147
4a
4a
4a
4a
=148
2a
4r
4ff
=149
8r
8dd
8ff
8bb-
8ddd
8fff
4bbb-
=150
4r
4bb
4r
4ccc
=151
1r
=152
4r
4dd
4r
4gg
=153
1r
=154
2r
4r
8.ee-[
32ee-]
32ee-
=155
4dd
4cc
4.gg
16ee-
16cc
=156
2.g
4g
=157
4g
4g
4g
4ee-
=158
2ee-
4dd
8.ff[
32ff]
32ff
=159
4ee-
4dd
4.gg#
16ff
16dd
=160
2.g
4g
=161
4g#
4b
4cc
4dd
=162
2ff
4ee-
8.e-[
32e-]
32e-
=163
4d
4c
4.g
16e-
16c
=164
1G#[
=165
2G#]
2r
=166
1g
=167
1g
=168
1r
=169
1r
=170
1r
=171
1r
=172
8c
8G
8G
8G
4G
8.c[
32c]
32c
=173
4B
4A
4B
8.c[
32c]
32c
=174
4B
8A
8B
4c
4d
=175
8c
8G
8G
8G
4G
8.c[
32c]
32c
=176
4B
4A
4B
8.c[
32c]
32c
=177
4B
8A
8B
4c
4d
=178
1r
=179
1r
=180
1r
=181
*M3/4
2.r
=182
*M1/4
8.e[
32e]
32e
=183
*M4/4
4d
4B
4d
8.e[
32e]
32e
=184
4d
8B
8d
4e
8.ff[
32ff]
32ff
=185
4ee
4dd
4ee
8.ff[
32ff]
32ff
=186
4ee
8dd
8ee
4ff
8.ee
32d
32e
=187
4d
4B
4d
8.e[
32e]
32e
=188
4d
8B
8d
4e
8.ff[
32ff]
32ff
=189
4ee
4dd
4ee
8.ff[
32ff]
32ff
=190
4ee
8dd
8ee
4ff
8.ee
32d
32e
=191
4d
4B
4d
8.e[
32e]
32e
=192
4d
8B
8d
4e
8.d[
32d]
32d
=193
4c
8B-
8c
4d
4c
=194
4B-
4A
4G
4f
=195
1d
=196
1c#
=197
2r
4r
8.ff[
32ff]
32ff
=198
4ee
4dd
4aa
8ff
8dd
=199
2a
8b-
8cc#
8g
8b-
=200
8e
8g
8c#
8e
8g
8b-
8cc#
8ee
=201
2.a
8.ff[
32ff]
32ff
=202
4ee
4dd
4aa
8ff
8dd
=203
1b-
=204
8B-
8B
8d
8f
8g#
8a#
8b
8ff
=205
2.b-
8.b-
32cc#
32ee-
=206
4cc#
4cc
4bb-
8gg
8ee
=207
8cc
16cc#
32cc#
32ee-
8cc#
16cc
32cc#
32ee-
8cc#
16cc
32cc#
32ee-
8cc#
16cc
32cc#
32ee-
=208
4cc#
4cc
4bb-
8gg
8ee
=209
8cc
16cc#
32cc#
32ee-
8cc#
16cc
32cc#
32ee-
8cc#
16cc
32cc#
32ee-
8cc#
16cc
32cc#
32ee-
=210
4cc#
4cc
4ccc#
8bb-
8gg
=211
8ee
8gg
8ee
8cc#
8b#
8cc#
8b-
8g
=212
16f
16cc
16g#
16cc
16g#
16cc
16g#
16cc
16g#
16cc
16g#
16cc
16g#
16cc
16g#
16cc
=213
16g#
16cc
16g#
16cc
16g#
16cc
16g#
16cc
16g#
16cc
16g#
16cc
16g#
16cc
16g#
16cc
=214
16g#
16cc
16g#
16cc
16g#
16cc
16g#
16cc
16g#
16cc
16g#
16cc
16g#
16cc
16g#
16cc
=215
16g#
16cc
16g#
16cc
16g#
16cc
16g#
16cc
16g#
16cc
16g#
16cc
16g#
16cc
16g#
16cc
=216
16g#
16cc
16g#
16cc
16g#
16cc
16g#
16cc
16g
16b-
16g
16b-
16f
16g#
16f
16g#
=217
16e
16g
16e
16g
16f
16g#
16f
16g#
16g
16b-
16g
16b-
16f
16b
16f
16b
=218
16e
16cc
16e
16cc
16e
16cc
16e
16cc
16e
16b-
16e
16b-
16e
16b-
16e
16b-
=219
16e
16g
16e
16b-
16g
16b-
16g
16cc#
16b-
16cc#
16b-
16ee
16cc#
16ee
16cc#
16gg
=220
16ee
16gg
16ee
16bb-
16gg#
16gg
16ff
16ee
16dd#
16cc#
16cc
16b-
16g#
16g
16f
16e
=221
16f
16g#
16f
16g#
16f
16g#
16f
16g#
16f
16g#
16f
16g#
16f
16g#
16f
16g#
=222
16f
16g#
16f
16cc
16g#
16cc
16g#
16ff
16cc
16ff
16cc
16gg#
16ff
16gg#
16ff
16ccc
=223
16gg#
16ccc
16gg#
16fff
16eee-
16ccc#
16ccc
16bb-
16gg#
16gg
16ff
16ee-
16cc#
16cc
16b-
16g#
=224
16f
16ff
16g#
16ff
16f
16ff
16g#
16ff
16f
16ff
16g#
16ff
16f
16ff
16g#
16ff
=225
16f#
16ff#
16a
16ff#
16f#
16ff#
16a
16ff#
16f#
16ff#
16a
16ff#
16f#
16ff#
16a
16ff#
=226
16g
16gg
16cc#
16gg
16g
16gg
16cc#
16gg
16g
16gg
16cc#
16gg
16g
16gg
16cc#
16gg
=227
16g
16gg
16cc#
16gg
16g
16gg
16cc#
16gg
16g
16gg
16cc#
16gg
16g
16gg
16cc#
16gg
=228
16g
16gg
16cc#
16gg
16g
16gg
16cc#
16gg
16g
16gg
16cc#
16gg
16g
16gg
16cc#
16gg
=229
16g
16gg
16cc#
16gg
16g
16gg
16cc#
16gg
16g
16gg
16cc#
16gg
16g
16gg
16cc#
16gg
=230
16g
16gg
16ee
16gg
16g
16gg
16ee
16gg
16g
16gg
16ee
16gg
16g
16gg
16ee
16gg
=231
16g
16gg
16ee
16gg
16g
16gg
16ee
16gg
16g
16gg
16ee
16gg
16g
16gg
16ee
16gg
=232
16b-
16gg
16ee
16gg
16b-
16gg
16ee
16gg
16b-
16gg
16ee
16gg
16b-
16gg
16ee
16gg
=233
16b-
16gg
16ee
16gg
16b-
16gg
16ee
16gg
16b-
16gg
16ee
16gg
16b-
16gg
16ee
16gg
=234
12b-
12gg
12ee
12b-
12gg
12ee
12b-
12gg
12ee
12b-
12gg
12ee
=235
12b-
12gg
12ee
12b-
12gg
12ee
12b-
12gg
12ee
12b-
12gg
12ee
=236
8b
8gg#
8b
8gg#
8b
8gg#
8b
8gg#
=237
2r
4r
8.a[
32a]
32a
=238
4g#
4f#
4.cc#
16a
16f#
=239
2.c#
4f#
=240
4e#
4f#
4g#
4a
=241
4c#
4c
4e
4a
=242
2a
4g#
4r
=243
2r
4r
8.cc[
32cc]
32cc
=244
4b
4a
4.ee
16cc
16a
=245
2.e
4a
=246
4g#
4a
4b
4cc
=247
4e
4e-
4g
4cc
=248
2cc
4b
8.ff[
32ff]
32ff
=249
4ee-
4dd
4.gg#
16ff
16dd
=250
2g
4r
8.ff[
32ff]
32ff
=251
4ee-
4dd
4.gg#
16ff
16dd
=252
2g
4r
8.ff[
32ff]
32ff
=253
4ee-
4dd
4.gg#
16ff
16dd
=254
4.bb
16gg#
16ff
4.ddd[
16ddd]
16ccc
=255
4bb
4r
4r
8.f[
32f]
32f
=256
4e-
4d
4.g#
16f
16d
=257
4.b
16g#
16f
4.dd[
16dd]
16cc
=258
4b
4g
2g
=259
2.g
4g
=260
8g#
8G#
8c
8e-
8g#
8G#
8d
8f
=261
8g#
8G#
8d
8f
8g#
8f
8a
8f
=262
4b-
4r
2b-
=263
2b-
2b-
=264
4bb-
4bb-
4bb-
4gg#
=265
4gg#
2ff]
4ee-
=266
4cc#
4cc#
2cc#
=267
2.cc#
4cc#
=268
8dd
8d
8f#
8a
8dd
8d
8g#
8b
=269
8dd
8d
8g#
8b
8dd
8b
8ee-
8b
=270
4ee
4eee
2eee
=271
2.eee
4eee
=272
4aaa
2aa
4aa
=273
4bb-
2aaa
4aaa
=274
4bbb-
2aa
4aa
=275
4bb-
2aaa
4aaa
=276
4aaa
4r
4eee
4r
=277
4eee
4r
4eee
4r
=278
8a
8A
8A
8A
4A
4B
=279
4c
4B
4c
4B
=280
8a
8A
8A
8A
4A
4B
=281
4c
4B
4c
4d
=282
8cc
8c
8c
8c
4c
4d
=283
4e
4d
4e
4d
=284
8cc
8c
8c
8c
4c
4d
=285
4e
4d
4e
4f#
=286
8g
8G
8g
8g
4g
4g#
=287
8g
8G
8g
8g
4g
4g#
=288
4f##
4g#
4f##
4g#
=289
4a
4b-
4b
4cc
=290
8a
8cc#
8cc#
8cc#
4cc#
4ee-
=291
8ff#
8ee
8ee
8ee
4ee
4ee
=292
8ee
8e
8e
8e
8e
8e
8g#
8b
=293
8a
8e
8g#
8b
8a
8e
8g#
8b
=294
8a
8e
8a
8cc#
8ee
8aa
8ccc#
8eee
=295
8eee
8ee
8fff
8ff
8fff#
8ff#
8fff#
8ff#
=296
8ff#
8f#
8f#
8f#
8f#
8f#
8b-
8cc#
=297
8b
8f#
8b-
8cc#
8b
8f#
8b-
8cc#
=298
8b
8f#
8b
8dd
8ff#
8bb
8ddd
8fff#
=299
8fff#
8ff#
8fff#
8ff#
8ggg
8gg
8ggg
8gg
=300
8ggg#
8gg#
8gg#
8gg#
4gg#
4gg#
=301
8aa
8cc#
8cc#
8cc#
4cc#
4ff#
=302
4r
4b
4r
4ee
=303
8ee
8cc#
8e
8cc#
4e
4e
=304
4e
4e
4e
4e
=305
2e
4r
4cc#
=306
8r
8b-
8cc#
8ff#
8bb-
8ccc#
4fff#
=307
8ff#
8dd
8f#
8dd
4f#
4f#
=308
4f#
4f#
4f#
4f#
=309
2f#
4r
4dd
=310
8r
8b
8dd
8gg
8bb
8ddd
4ggg
=311
4r
4gg#
4r
4aa
=312
1r
=313
4r
4b
2r
=314
4r
4ee
2r
=315
2r
4r
8.cc[
32cc]
32cc
=316
4b
4a
4.ee
16cc
16a
=317
2.e
4e
=318
4e
4e
4e
4cc
=319
2cc
4b
8.dd[
32dd]
32dd
=320
4cc
4b
4.ff
16dd
16b
=321
2.e
4e
=322
4f
4g#
4a
4b
=323
2dd
4cc
8.c[
32c]
32c
=324
4B
4A
2e[
=325
2e]
4d
4c
=326
4B
4c
4d
4e-
=327
1e
=328
1e
=329
8f
8c
8c
8c
4c
4g
=330
4f
4g
4a
4g
=331
8f
8c
8c
8c
4c
8.f[
32f]
32f
=332
4e
4d
4e
8.f
32f[
32f]
=333
4c
8B
8c
4d
4e
=334
8f
8c
8c
8c
4c
4g
=335
4f
4g
4a
4g
=336
8f
8c
8c
8c
4c
8.f[
32f]
32f
=337
4e
4d
4e
4f
=338
2r
4r
4e
=339
1r
=340
1r
=341
1r
=342
1r
=343
1r
=344
1r
=345
1r
=346
8r
8e
8e
8e
4e
4e
=347
8r
8e
8e
8e
4e
4e
=348
2r
4r
8.c[
32c]
32c
=349
4B
4A
4B
8.c[
32c]
32c
=350
4B
8A
8B
4c
8.d[
32d]
32d
=351
4c
4B
4c
8.d[
32d]
32d
=352
4c
8B
8c
4d
8.e[
32e]
32e
=353
4d
8c
8d
4e
4f
=354
2r
4r
4d
=355
4c
4B-
4A
4G
=356
2.a
4g
=357
4a
4g
4a
4cc
=358
2.a
4g
=359
4a
4g
4a
4cc
=360
2.a
4a
=361
2.cc
4cc
=362
2.ee-
4r
=363
2r
4r
8.cc[
32cc]
32cc
=364
4b
4a
4.ee-
16cc
16a
=365
1e
=366
2e
2e
=367
2r
4r
8.c[
32c]
32c
=368
4B
4A
4B
8.c[
32c]
32c
=369
4B
8A
8B
4c
8.d[
32d]
32d
=370
4c
4B
4c
8.d[
32d]
32d
=371
4c
8B
8c
4d
8.e[
32e]
32e
=372
4d
8c
8d
4e
4f
=373
4g
4f
4e
4d
=374
4c
4B-
4A
4G
=375
2.a
4b-
=376
2.a
4b-
=377
4b
4a#
4b
4cc#
=378
2.b
4cc#
=379
2.b
4cc#
=380
4dd
4cc#
4dd
4ee
=381
2.dd
4dd
=382
2.ee
4ee
=383
2.ff
4ff
=384
2.aa
4aa
=385
2.ccc
4ccc
=386
2.eee
4eee
=387
2.aaa
4ggg#
=388
4aaa
4ggg#
4aaa
4bbb
=389
2.aaa
4ggg#
=390
4aaa
4ggg#
4aaa
4bbb
=391
4aaa
4bbb
4cccc
4bbb
=392
4cccc
4bbb
4cccc
4bbb
=393
4aaa
4r
4eee
4r
=394
4eee
4r
4eee
4r
=395
2.a
4g#
=396
4a
4g#
4a
4b
=397
4a
8g#
8a
4b
4cc
=398
2.a
4g#
=399
4a
4g#
4a
4b
=400
4a
8g#
8a
4b
4cc
=401
4a
4r
2r
=402
2ee
2r
=403
2aa
2r
==
*-
